X:1
T:James Gibb editions
T:Ave Maria- Ravanello
T:#
%%score { 1 | 2 } 3
L:1/8
Q:1/4=138
M:2/2
K:Eb
V:1 treble nm="Soprano I" snm="S"
V:2 treble 
V:3 treble nm="Alto" snm="A"
V:1
"^Ave Maria, op.66/28""^Oreste Ravanello\n (1871-1938)""^dolcissimo"!pp! (B8- | B8 | e8- | e4 d4 | %4
w: A\-||||
 c8) |"^," B4 B4 | (B8- | B4 =A4) | B8 | d8 | d4"^," d4 |[M:2/2] (e8 | d8 | c6 d2 | e8) |"^," d8 | %16
w: |ve, Ma-|ri\-||a,|gra-|ti- a|ple\-||||na:|
!mf! d8 | d4 d4 |!f! (c4 f4- | f4 e4 | d8) |"^," e8 | e8 | e8 | f4 f4 | g8 | z8 | z8 | e8- | %29
w: Do-|mi- nus|te\- *|||cum:|be-|ne-|di- cta|tu,|||be\-|
 e4 d4 | c4 d4 | e8 | z8 | z4 c4 | f4 e4 | (d4 c4 | B6 c2 | d4 e4- | e4) d4 | !fermata!e8 || %40
w: * ne-|di- cta|tu,||in|mu- li-|e\- *|||* ri-|bus.|
 B4 B4 | B8- | B8 | !fermata!B8 |] %44
w: Al- le-|lu\-||ia.|
V:2
!pp! (G8 | F4 B4- | B4 A4 | G8 | A8) |"^," G4 G4 | (F4 G4 | E8) | D8 | B8 | B4"^," B4 | %11
w: A\-|||||ve, Ma-|ri\- *||a,|gra-|ti- a|
[M:2/2] (G4 c4- | c4 B4 | A8 | G4 c4) |"^," =B8 |!mf! =B8 | =B4 B4 |!f! (c8 | =B4 c4- | c4 =B4) | %21
w: ple\- *||||na:|Do-|mi- nus|te\-|||
"^," c8 | c4 c4 | (B4 e4- | e4) d4 |"^," e4 e4- | e4 d4 | c4 d4 |"^," e4 (B4 | A4) A4 | A4 A4 | %31
w: cum:|be- ne-|di\- *|* cta|tu, be\-|* ne-|di- cta|tu, be\-|* ne|di- cta|
"^," G4 G4 | c4 B4 | A4 G4 |"^," F4 G4 | (B4 A4- | A4) G4 | (F4 G4) | F8 | !fermata!G8 || G4 G4 | %41
w: tu in|mu- li-|e- ri-|us, in|mu\- *|* li-|e\- *|ri-|bus.|Al- le-|
 F8- | F8 | !fermata!G8 |] %44
w: lu\-||ia.|
V:3
!pp! (E8- | E4 D4 | C8- | C4 B,4 | A,4 C4) |"^," E4 E4 | (D4 E4 | C8) | B,8 | z4 B,4- | %10
w: A\-|||||ve, Ma-|ri\- *||a,|gra\-|
 B,4 B,2 B,2 |[M:2/2] (C8 | G8- | G4 F4 | E6 F2) |"^," G8 |!mf! G8 | G4 G4 |!f! (_A6 GF | G8- | %20
w: * ti- a|ple\-||||na:|Do-|mi- nus|te\- * *||
 G8) |"^," C8 | _A8- | A4 G4 | A4 B4 | E8 | F6 G2 | (A4 F4 | G6 FE | F8- | F4) B,4 |"^," C4 E4 | %32
w: |cum:|be\-|* ne-|di- cta|tu,|be- ne-|di\- *|||* cta|tu in|
 A4 G4 | F4 E4 |"^," D4 C4 | B,4 (C2 D2) | (E8 | B,8) | B,8 | !fermata!E8 || E4 E4 | (E4 D2 C2 | %42
w: mu- li-|e- ri-|bus, in|mu- li\- *|e\-||ri-|bus.|Al- le-|lu\- * *|
 D8) | !fermata!E8 |] %44
w: |ia.|

